X: 18893
T: In The Toyshop
R: barndance
M: 4/4
K: Gmajor
Bc|d2 d2 g2 g2|d2 d2 z2 GA|B2 B2 e2 e2|d6 fe|
d2 A2 A2 fe|d2 A2 A2 fe|d2 c2 B2 A2|B6 Bc|
d2 d2 g2 g2|d2 d2 z2 GA|B2 B2 e2 e2|d6 fe|
d2 A2 A2 fe|d2 A2 A2 fe|d2 c2 B2 A2|G4 z2 d2||
e2 e2 e2 e2|e2 e2 agfe|d2 d2 d2 c2|B6 d2|
e2 e2 e2 e2|e2 e2 agfe|d2 d2 e2 e2|f6 Bc|
d2 d2 g2 g2|d2 d2 z2 GA|B2 B2 e2 e2|d6 fe|
d2 A2 A2 fe|d2 A2 A2 fe|d2 c2 B2 A2|G6||

